assets/icons/chevron-left.svg

<svg width="24" height="25" viewBox="0 0 24 25" fill="none" xmlns="http://www.w3.org/2000/svg">
<path d="M16.7167 20.8796C16.9649 21.2591 16.9217 21.7742 16.5872 22.106C16.2527 22.4377 15.7382 22.4754 15.3608 22.2241L15.2065 22.1003L8.04236 14.8752C6.89553 13.719 6.82368 11.8813 7.82716 10.6399L8.04236 10.4L15.2065 3.17485L15.3608 3.05107C15.7382 2.79978 16.2527 2.83741 16.5872 3.16914C16.9217 3.50091 16.9649 4.01608 16.7167 4.39554L16.5929 4.54979L9.42682 11.773L9.27257 11.9634C8.96446 12.4367 9.0162 13.0882 9.42682 13.5021L16.5929 20.7253L16.7167 20.8796Z" fill="#111111"/>
</svg>

<svg xmlns="http://www.w3.org/2000/svg" width="24" height="25" fill="none" viewBox="0 0 24 25"><path fill="#111" d="M16.717 20.88a.975.975 0 0 1-1.356 1.345l-.155-.125-7.164-7.225a3.19 3.19 0 0 1-.215-4.235l.215-.24 7.165-7.225.154-.124a.975.975 0 0 1 1.356 1.345l-.124.154-7.166 7.223-.154.19a1.24 1.24 0 0 0 .154 1.54l7.166 7.222z"/></svg>
